X: 27445
T: Molly Bán
R: reel
M: 4/4
K: Eminor
EBBA B2 AG|FDDD BDAF|EBBA B2 Bc|dBAF BAGF|
EBBA B2 AG|FDAD BDAD|EBBA B2 Bc|dBAc BE E2:|
e B3 e2fe|dA3 dcdf|e B3 e2fe|dBAF BE E2|
e B3 e2fe|dA3 dcde|f3 e defe|dBAF BE E2:|

